icons/1-4x-playback-speed-16.svg

<svg id="icons" xmlns="http://www.w3.org/2000/svg" viewBox="0 0 16 16"><path d="M10,16H9V14H4.793L10,8.793V13h1v1H10ZM7.207,13H9V11.207ZM2,.91113.03418,1.73389l.38574.92285L1,2.41406V8H2ZM7.709,2.415,6.79883,2,1.05518,14.585,1.96533,15ZM14.72143,6,13.502,7.639,12.28248,6H11.00489l1.8583,2.498L11.002,11h1.27753L13.502,9.357,14.72443,11H16L14.14072,8.498,16,6Z"/><path fill="none" d="M0 0h16v16H0z"/></svg>

<svg xmlns="http://www.w3.org/2000/svg" viewBox="0 0 16 16"><path d="M10 16H9v-2H4.793L10 8.793V13h1v1h-1zm-2.793-3H9v-1.793zM2 .911l-1.966.823.386.923.58-.243V8h1zm5.709 1.504L6.799 2 1.055 14.585l.91.415zM14.721 6l-1.219 1.639L12.282 6h-1.277l1.858 2.498L11.002 11h1.278l1.222-1.643L14.724 11H16l-1.86-2.502L16 6z"/><path fill="none" d="M0 0h16v16H0z"/></svg>
